X:1
T:Title
%%score { 1 | 2 }
L:1/8
M:4/4
K:Eb
V:1 treble nm="Grand Piano"
V:2 bass 
V:1
 z4 z2[Q:1/4=100] E2 | G2 G>G G2 EG | [EGB]2 [DFB]>[FAB] [GB]3 [GB] | c2 d>c B2 AG | [DF]6 [FA]2 | %5
 G2 G>G G2 EG | [EGB]2 [DFB]>[FAB] [GB]3 [GB] | [Ge]2 BA GG [DF]2 |[M:3/4] E6 |[M:1/4] [GB]2 | %10
[M:4/4] c2 c>c e e2 c | [EGB]2 [B,EG]2 [EGB]3 [EGB] | [DFB]2 [DF]>[EG] [FA] [FA]2 [FA] | %13
 [EG]2 [Ac]>[Ac] [GB]3 [GB] | c2 c>c e e2 c | [GB]2 [GB]>[EG] [GB]3 [GB] | [Ge]2 BA GG [DF]2 | %17
[M:3/4] E6 |] %18
V:2
 z4 z2 [E,G,]2 | [E,B,E]2 [E,B,E]>[E,B,E] [E,B,E]2 [E,G,][E,B,E] | E,2 B,,>B,, [E,E]3 [E,E] | %3
 [A,EA]2 [A,EA]>[A,EA][K:bass] [G,E]2 [F,B,D][E,B,E] | [B,,B,]6 [B,,B,]2 | %5
 [E,B,E]2 [E,B,E]>[E,B,E] [E,B,E]2 [E,G,][E,B,E] | E,2 B,,>B,, [E,E]3 [E,E] | %7
 [E,B,]2 [G,B,E][A,CE] [B,E][B,E] [B,,A,]2 |[M:3/4] [E,G,]6 |[M:1/4] [E,E]2 | %10
[M:4/4][K:treble] [A,EA]2 [A,EA]>[A,EA] [A,CA] [A,CA]2 [A,EA] | E,2 E,2 E,3 E, | %12
 B,,2 [B,,B,]>[B,,B,] [B,,B,] [B,,B,]2 [B,,B,] | [E,B,]2 [E,E]>[E,E] [E,E]3 [E,E] | %14
 [A,EA]2 [A,EA]>[A,EA] [A,CA] [A,CA]2 [A,EA] | [E,E]2 [E,E]>[E,B,] [E,E]3 [E,E] | %16
 [E,B,]2 [G,B,E][A,CE] [B,E][B,E] [B,,A,]2 |[M:3/4] [E,G,]6 |] %18

